; generated by PrusaSlicer 2.8.1+win64 on 2024-10-08 at 04:39:13 UTC


;
;
; 

; external perimeters extrusion width = 0.60mm
; perimeters extrusion width = 0.50mm
; infill extrusion width = 0.50mm
; solid infill extrusion width = 0.50mm
; top infill extrusion width = 0.45mm
; first layer extrusion width = 0.42mm

M73 P0 R147
M73 Q0 S148
M201 X1000 Y1000 Z200 E5000 ; sets maximum accelerations, mm/sec^2
M203 X200 Y200 Z12 E120 ; sets maximum feedrates, mm / sec
M204 S1250 T1250 ; sets acceleration (S) and retract acceleration (R), mm/sec^2
M205 X8.00 Y8.00 Z0.40 E4.50 ; sets the jerk limits, mm/sec
M205 S0 T0 ; sets the minimum extruding and travel feed rate, mm/sec

; printing object HM_HUBCENTRE6.STL id:0 copy 0
; stop printing object HM_HUBCENTRE6.STL id:0 copy 0

;TYPE:Custom
M862.3 P "MK3S" ; printer model check
M862.1 P0.4 ; nozzle diameter check
M115 U3.14.0 ; tell printer latest fw version
G90 ; use absolute coordinates
M83 ; extruder relative mode
M104 S215 ; set extruder temp
M140 S60 ; set bed temp
M190 S60 ; wait for bed temp
M109 S215 ; wait for extruder temp
G28 W ; home all without mesh bed level
G80 X81.4018 Y57.6229 W87.1964 H94.7542 ; mesh bed levelling

G1 Z0.2 F720
G1 Y-3 F1000 ; go outside print area
G92 E0
G1 X60 E9 F1000 ; intro line
G1 X100 E12.5 F1000 ; intro line

G92 E0
M221 S95

; Don't change E values below. Excessive value can damage the printer.

M907 E538 ; set extruder motor current
G21 ; set units to millimeters
G90 ; use absolute coordinates
M83 ; use relative distances for extrusion

M900 K0.05 ; Filament gcode LA 1.5
M900 K30 ; Filament gcode LA 1.0




M107
;LAYER_CHANGE
;Z:0.2
;HEIGHT:0.2
G1 E-.8 F2100
M73 Q0 S147
G1 Z.6 F720
G1 X86.38 Y77.515 F10800
G1 Z.2 F720
G1 E.8 F2100
M204 S800
;TYPE:Skirt/Brim
;WIDTH:0.42
G1 F1200
G1 X87.181 Y76.714 E.03552
G1 X119.406 Y58.105 E1.16676
G1 X120.5 Y57.811 E.03552
G1 X129.5 Y57.811 E.28219
G1 X130.594 Y58.105 E.03552
G1 X162.815 Y76.708 E1.16656
G1 X163.616 Y77.509 E.03552
G1 X168.113 Y85.297 E.28197
G1 X168.406 Y86.391 E.03551
G1 X168.41 Y123.603 E1.16676
G1 X168.116 Y124.697 E.03552
G1 X163.616 Y132.491 E.28218
G1 X162.815 Y133.292 E.03552
G1 X130.594 Y151.895 E1.16656
G1 X129.5 Y152.189 E.03552
G1 X120.5 Y152.189 E.28219
G1 X119.406 Y151.895 E.03552
G1 X87.185 Y133.292 E1.16656
G1 X86.384 Y132.491 E.03552
M73 P0 R146
G1 X81.887 Y124.703 E.28197
G1 X81.594 Y123.609 E.03551
G1 X81.59 Y86.397 E1.16676
G1 X81.884 Y85.303 E.03552
G1 X86.35 Y77.567 E.28007
M204 S1000
;WIPE_START
G1 F8640
G1 X86.38 Y77.515 E-.01386
G1 X87.181 Y76.714 E-.26156
G1 X89.148 Y75.578 E-.52458
;WIPE_END
G1 Z.6 F720
; printing object HM_HUBCENTRE6.STL id:0 copy 0
G1 X129.623 Y101.956 F10800
G1 Z.2 F720
G1 E.8 F2100
M204 S800
;TYPE:Perimeter
;WIDTH:0.419999
G1 F1200
G1 X130.026 Y102.678 E.02593
G1 X130.345 Y103.559 E.02938
G1 X130.511 Y104.478 E.02928
G1 X130.511 Y105.522 E.03273
G1 X130.369 Y106.348 E.02628
G1 X130.064 Y107.237 E.02947
G1 X129.56 Y108.14 E.03242
G1 X129.03 Y108.796 E.02644
G1 X128.253 Y109.479 E.03244
G1 X127.535 Y109.922 E.02645
G1 X126.855 Y110.204 E.02308
G1 X126.575 Y110.307 E.00935
G1 X125.751 Y110.485 E.02643
G1 X124.717 Y110.529 E.03245
G1 X123.881 Y110.422 E.02643
G1 X122.891 Y110.119 E.03246
G1 X122.138 Y109.739 E.02645
G1 X121.307 Y109.124 E.03241
G1 X120.723 Y108.515 E.02646
G1 X120.383 Y108.026 E.01867
G1 X120.144 Y107.658 E.01376
G1 X119.796 Y106.889 E.02647
G1 X119.536 Y105.888 E.03243
G1 X119.464 Y105.048 E.02643
G1 X119.536 Y104.112 E.02943
G1 X119.764 Y103.201 E.02944
G1 X120.144 Y102.342 E.02945
G1 X120.723 Y101.485 E.03243
G1 X121.307 Y100.876 E.02646
G1 X122.022 Y100.337 E.02807
G1 X122.891 Y99.881 E.03077
G1 X123.787 Y99.599 E.02945
G1 X124.586 Y99.488 E.02529
G1 X125.22 Y99.484 E.01988
G1 X125.751 Y99.515 E.01668
G1 X126.575 Y99.693 E.02643
G1 X127.473 Y100.046 E.03025
G1 X128.253 Y100.521 E.02863
G1 X128.911 Y101.089 E.02725
G1 X129.345 Y101.595 E.0209
G1 X129.588 Y101.907 E.0124
M204 S1000
G1 X129.588 Y101.907 F10800
G1 X129.293 Y102.14
M204 S800
;TYPE:External perimeter
G1 F1200
G1 X129.696 Y102.861 E.0259
G1 X129.99 Y103.684 E.0274
G1 X130.139 Y104.542 E.0273
G1 X130.142 Y105.33 E.02471
G1 X129.99 Y106.316 E.03128
G1 X129.708 Y107.113 E.02651
G1 X129.266 Y107.903 E.02838
G1 X128.736 Y108.559 E.02644
G1 X128.056 Y109.158 E.02841
G1 X127.337 Y109.6 E.02646
G1 X126.714 Y109.854 E.02109
G1 X126.096 Y110.025 E.02011
G1 X125.64 Y110.12 E.0146
G1 X124.797 Y110.156 E.02646
G1 X124.057 Y110.064 E.02338
G1 X123.061 Y109.782 E.03246
G1 X122.308 Y109.402 E.02645
G1 X121.579 Y108.863 E.02843
G1 X120.995 Y108.254 E.02646
G1 X120.695 Y107.815 E.01667
G1 X120.487 Y107.503 E.01176
G1 X120.14 Y106.734 E.02645
G1 X119.911 Y105.856 E.02845
G1 X119.84 Y105.016 E.02643
G1 X119.911 Y104.144 E.02743
G1 X120.129 Y103.296 E.02745
G1 X120.487 Y102.497 E.02745
G1 X120.85 Y101.956 E.02043
G1 X121.233 Y101.498 E.01872
G1 X121.582 Y101.134 E.01581
G1 X122.246 Y100.64 E.02595
G1 X123.061 Y100.218 E.02878
G1 X123.897 Y99.959 E.02744
G1 X124.634 Y99.862 E.02331
G1 X125.204 Y99.861 E.01787
G1 X125.671 Y99.884 E.01466
G1 X126.496 Y100.061 E.02646
G1 X127.317 Y100.389 E.02772
G1 X128.056 Y100.842 E.02718
G1 X128.662 Y101.372 E.02524
G1 X129.052 Y101.832 E.01891
G1 X129.259 Y102.092 E.01042
M204 S1000
;WIPE_START
G1 F8640
G1 X129.293 Y102.14 E-.01358
G1 X129.696 Y102.861 E-.19072
G1 X129.99 Y103.684 E-.20179
G1 X130.139 Y104.542 E-.20108
G1 X130.142 Y105.33 E-.18195
G1 X130.135 Y105.377 E-.01088
;WIPE_END
G1 Z.6 F720
G1 X124.838 Y94.269 F10800
G1 Z.2 F720
G1 E.8 F2100
M204 S800
;TYPE:Perimeter
G1 F1200
G1 X124.239 Y94.151 E.01914
G1 X123.744 Y93.884 E.01763
G1 X123.422 Y93.648 E.01252
G1 X123.056 Y93.195 E.01826
G1 X122.97 Y93.046 E.00539
G1 X122.769 Y92.479 E.01886
G1 X122.737 Y92.291 E.00598
G1 X122.737 Y91.709 E.01825
G1 X122.867 Y91.243 E.01517
G1 X123.056 Y90.805 E.01496
G1 X123.422 Y90.352 E.01826
G1 X123.856 Y90.047 E.01663
G1 X124.239 Y89.849 E.01352
G1 X124.808 Y89.726 E.01825
G1 X125.266 Y89.728 E.01436
G1 X125.941 Y89.921 E.02201
G1 X126.36 Y90.191 E.01563
G1 X126.712 Y90.492 E.01452
G1 X127.038 Y90.974 E.01824
G1 X127.117 Y91.148 E.00599
G1 X127.263 Y91.711 E.01824
G1 X127.28 Y91.902 E.00601
G1 X127.23 Y92.482 E.01825
G1 X127.095 Y92.859 E.01256
G1 X126.864 Y93.323 E.01625
G1 X126.432 Y93.776 E.01963
G1 X126.279 Y93.89 E.00598
G1 X125.759 Y94.152 E.01826
G1 X125.431 Y94.226 E.01054
G1 X124.926 Y94.286 E.01595
G1 X124.896 Y94.28 E.00096
M204 S1000
G1 X124.896 Y94.28 F10800
G1 X124.886 Y93.895
M204 S800
;TYPE:External perimeter
G1 F1200
G1 X124.318 Y93.782 E.01816
G1 X123.763 Y93.453 E.02023
G1 X123.321 Y92.909 E.02198
G1 X123.125 Y92.354 E.01845
G1 X123.114 Y91.772 E.01825
G1 X123.223 Y91.369 E.01309
G1 X123.35 Y91.042 E.011
G1 X123.715 Y90.589 E.01824
G1 X124.259 Y90.241 E.02025
G1 X124.887 Y90.095 E.02022
G1 X125.337 Y90.131 E.01415
G1 X125.831 Y90.282 E.0162
G1 X126.356 Y90.657 E.02023
G1 X126.726 Y91.185 E.02022
G1 X126.899 Y91.806 E.02021
G1 X126.855 Y92.45 E.02024
G1 X126.599 Y93.042 E.02022
G1 X126.16 Y93.515 E.02023
G1 X125.689 Y93.765 E.01672
G1 X125.528 Y93.834 E.00549
G1 X124.951 Y93.908 E.01824
G1 X124.944 Y93.906 E.00023
M204 S1000
;WIPE_START
G1 F8640
G1 X124.886 Y93.895 E-.01363
G1 X124.318 Y93.782 E-.13372
G1 X123.763 Y93.453 E-.14898
G1 X123.321 Y92.909 E-.16185
G1 X123.125 Y92.354 E-.13591
G1 X123.114 Y91.772 E-.13441
G1 X123.195 Y91.473 E-.0715
;WIPE_END
G1 Z.6 F720
G1 X114.346 Y100.702 F10800
G1 Z.2 F720
G1 E.8 F2100
M204 S800
;TYPE:Perimeter
G1 F1200
G1 X113.74 Y100.782 E.01917
G1 X113.531 Y100.77 E.00656
G1 X112.98 Y100.651 E.01767
G1 X112.463 Y100.37 E.01845
G1 X112.164 Y100.148 E.01168
G1 X111.795 Y99.692 E.01839
G1 X111.57 Y99.147 E.01849
G1 X111.479 Y98.791 E.01152
G1 X111.479 Y98.209 E.01825
G1 X111.511 Y98.021 E.00598
G1 X111.705 Y97.472 E.01826
G1 X111.798 Y97.305 E.00599
G1 X112.164 Y96.852 E.01826
G1 X112.307 Y96.726 E.00598
G1 X112.803 Y96.42 E.01827
G1 X113.272 Y96.286 E.01529
G1 X113.693 Y96.214 E.01339
G1 X114.126 Y96.251 E.01363
G1 X114.683 Y96.421 E.01826
G1 X115.076 Y96.672 E.01462
G1 X115.454 Y96.992 E.01553
G1 X115.78 Y97.474 E.01824
G1 X115.858 Y97.648 E.00598
G1 X116.005 Y98.211 E.01824
G1 X116.014 Y98.484 E.00856
G1 X115.964 Y99.038 E.01744
G1 X115.684 Y99.697 E.02245
G1 X115.343 Y100.1 E.01655
G1 X115.02 Y100.39 E.01361
G1 X114.501 Y100.652 E.01823
G1 X114.404 Y100.686 E.00322
M204 S1000
G1 X114.404 Y100.686 F10800
G1 X114.267 Y100.333
M204 S800
;TYPE:External perimeter
G1 F1200
G1 X113.693 Y100.408 E.01815
G1 X113.06 Y100.282 E.02024
G1 X112.505 Y99.953 E.02023
G1 X112.091 Y99.458 E.02023
G1 X111.866 Y98.854 E.02021
G1 X111.856 Y98.209 E.02023
G1 X112.06 Y97.597 E.02023
G1 X112.457 Y97.089 E.02021
G1 X113.06 Y96.718 E.0222
G1 X113.629 Y96.595 E.01825
G1 X114.016 Y96.611 E.01214
G1 X114.575 Y96.783 E.01834
G1 X115.141 Y97.203 E.0221
G1 X115.467 Y97.685 E.01824
G1 X115.629 Y98.264 E.01885
G1 X115.596 Y98.95 E.02153
G1 X115.34 Y99.542 E.02022
G1 X114.902 Y100.015 E.02021
G1 X114.322 Y100.313 E.02045
M204 S1000
;WIPE_START
G1 F8640
G1 X114.267 Y100.333 E-.01351
G1 X113.693 Y100.408 E-.13366
G1 X113.06 Y100.282 E-.14903
G1 X112.505 Y99.953 E-.14898
G1 X112.091 Y99.458 E-.149
G1 X111.866 Y98.854 E-.14883
G1 X111.862 Y98.607 E-.05699
;WIPE_END
G1 Z.6 F720
G1 X115.421 Y109.98 F10800
G1 Z.2 F720
G1 E.8 F2100
M204 S800
;TYPE:Perimeter
G1 F1200
G1 X115.594 Y110.199 E.00875
G1 X115.857 Y110.642 E.01615
G1 X116.005 Y111.211 E.01843
G1 X116.003 Y111.617 E.01273
G1 X115.942 Y112.122 E.01595
G1 X115.684 Y112.697 E.01976
G1 X115.577 Y112.856 E.00601
G1 X115.174 Y113.276 E.01825
G1 X114.79 Y113.506 E.01403
G1 X114.318 Y113.708 E.0161
G1 X113.74 Y113.782 E.01827
G1 X113.272 Y113.714 E.01483
G1 X112.803 Y113.58 E.01529
G1 X112.307 Y113.275 E.01826
G1 X112.164 Y113.148 E.006
G1 X111.798 Y112.695 E.01826
G1 X111.705 Y112.528 E.00599
G1 X111.511 Y111.979 E.01826
G1 X111.479 Y111.422 E.01749
G1 X111.511 Y111.021 E.01261
G1 X111.706 Y110.469 E.01836
G1 X112.058 Y109.983 E.01882
G1 X112.307 Y109.726 E.01122
G1 X112.803 Y109.42 E.01827
G1 X112.98 Y109.349 E.00598
G1 X113.549 Y109.226 E.01825
G1 X114.065 Y109.236 E.01618
G1 X114.683 Y109.421 E.02023
G1 X114.853 Y109.507 E.00597
G1 X115.321 Y109.854 E.01827
G1 X115.384 Y109.933 E.00317
M204 S1000
G1 X115.384 Y109.933 F10800
G1 X115.126 Y110.219
M204 S800
;TYPE:External perimeter
G1 F1200
G1 X115.467 Y110.685 E.01811
G1 X115.626 Y111.253 E.01849
G1 X115.627 Y111.585 E.01041
G1 X115.58 Y112.012 E.01347
G1 X115.34 Y112.542 E.01824
G1 X114.902 Y113.015 E.02021
G1 X114.331 Y113.315 E.02022
G1 X113.629 Y113.405 E.02219
G1 X113.06 Y113.282 E.01825
G1 X112.505 Y112.953 E.02023
G1 X112.091 Y112.458 E.02023
G1 X111.866 Y111.854 E.02021
G1 X111.856 Y111.209 E.02023
G1 X112.045 Y110.64 E.0188
G1 X112.351 Y110.22 E.01629
G1 X112.505 Y110.047 E.00726
G1 X113.001 Y109.741 E.01827
G1 X113.611 Y109.599 E.01964
G1 X114.016 Y109.611 E.0127
G1 X114.572 Y109.782 E.01824
G1 X115.061 Y110.13 E.01882
G1 X115.09 Y110.17 E.00155
M204 S1000
;WIPE_START
G1 F8640
G1 X115.126 Y110.219 E-.01404
G1 X115.467 Y110.685 E-.13333
G1 X115.626 Y111.253 E-.13619
G1 X115.627 Y111.585 E-.07666
G1 X115.58 Y112.012 E-.09919
G1 X115.34 Y112.542 E-.13434
G1 X114.902 Y113.015 E-.14885
G1 X114.682 Y113.131 E-.0574
;WIPE_END
G1 Z.6 F720
G1 X126.692 Y116.47 F10800
G1 Z.2 F720
G1 E.8 F2100
M204 S800
;TYPE:Perimeter
G1 F1200
G1 X126.712 Y116.492 E.00093
G1 X127.038 Y116.974 E.01824
G1 X127.117 Y117.148 E.00599
G1 X127.263 Y117.711 E.01824
G1 X127.271 Y117.998 E.009
G1 X127.189 Y118.652 E.02067
G1 X126.942 Y119.197 E.01876
G1 X126.723 Y119.473 E.01105
G1 X126.364 Y119.837 E.01603
G1 X125.759 Y120.152 E.02139
G1 X125.576 Y120.208 E.006
G1 X124.999 Y120.282 E.01824
G1 X124.808 Y120.274 E.00599
G1 X124.239 Y120.151 E.01825
G1 X123.856 Y119.953 E.01352
G1 X123.422 Y119.648 E.01663
G1 X123.056 Y119.195 E.01826
G1 X122.867 Y118.757 E.01496
G1 X122.737 Y118.291 E.01517
G1 X122.737 Y117.709 E.01825
G1 X122.904 Y117.14 E.01859
G1 X123.056 Y116.805 E.01153
G1 X123.425 Y116.348 E.01842
G1 X123.744 Y116.116 E.01237
G1 X124.217 Y115.854 E.01695
G1 X124.865 Y115.717 E.02077
G1 X125.384 Y115.751 E.01631
G1 X125.941 Y115.921 E.01826
G1 X126.112 Y116.007 E.006
G1 X126.58 Y116.354 E.01827
G1 X126.65 Y116.427 E.00317
M204 S1000
G1 X126.65 Y116.427 F10800
G1 X126.394 Y116.711
M204 S800
;TYPE:External perimeter
G1 F1200
G1 X126.726 Y117.185 E.01814
G1 X126.899 Y117.806 E.02021
G1 X126.855 Y118.45 E.02024
G1 X126.599 Y119.042 E.02022
G1 X126.16 Y119.515 E.02023
G1 X125.589 Y119.815 E.02022
G1 X124.887 Y119.905 E.02219
G1 X124.318 Y119.782 E.01825
G1 X123.763 Y119.453 E.02023
G1 X123.418 Y119.043 E.0168
G1 X123.319 Y118.903 E.00538
G1 X123.125 Y118.354 E.01826
G1 X123.114 Y117.709 E.02023
G1 X123.319 Y117.097 E.02024
G1 X123.715 Y116.589 E.0202
G1 X124.259 Y116.241 E.02025
G1 X124.906 Y116.092 E.02082
G1 X125.274 Y116.111 E.01155
G1 X125.831 Y116.282 E.01827
G1 X126.356 Y116.657 E.02023
G1 X126.359 Y116.662 E.00018
M204 S1000
;WIPE_START
G1 F8640
G1 X126.394 Y116.711 E-.0139
G1 X126.726 Y117.185 E-.13362
G1 X126.899 Y117.806 E-.14885
G1 X126.855 Y118.45 E-.14905
G1 X126.599 Y119.042 E-.14893
G1 X126.16 Y119.515 E-.14901
G1 X125.943 Y119.629 E-.05664
;WIPE_END
G1 Z.6 F720
G1 X134.236 Y112.557 F10800
G1 Z.2 F720
G1 E.8 F2100
M204 S800
;TYPE:Perimeter
G1 F1200
G1 X134.228 Y112.546 E.00043
G1 X134.028 Y111.979 E.01885
G1 X133.995 Y111.791 E.00598
G1 X133.995 Y111.209 E.01825
G1 X134.141 Y110.699 E.01663
G1 X134.315 Y110.305 E.0135
G1 X134.684 Y109.847 E.01844
G1 X135.107 Y109.551 E.01619
G1 X135.497 Y109.349 E.01377
G1 X136.066 Y109.226 E.01825
G1 X136.582 Y109.236 E.01618
G1 X137.199 Y109.421 E.0202
G1 X137.37 Y109.507 E.006
G1 X137.838 Y109.854 E.01827
G1 X138.101 Y110.185 E.01326
G1 X138.373 Y110.639 E.01659
G1 X138.534 Y111.275 E.02057
G1 X138.489 Y111.982 E.02221
G1 X138.309 Y112.458 E.01596
G1 X138.094 Y112.856 E.01418
G1 X137.691 Y113.276 E.01825
G1 X137.434 Y113.442 E.00959
G1 X136.848 Y113.706 E.02015
G1 X136.257 Y113.782 E.01868
G1 X135.907 Y113.739 E.01106
G1 X135.418 Y113.628 E.01572
G1 X134.824 Y113.274 E.02168
G1 X134.545 Y112.981 E.01269
G1 X134.272 Y112.606 E.01454
M204 S1000
G1 X134.272 Y112.606 F10800
G1 X134.586 Y112.396
M204 S800
;TYPE:External perimeter
G1 F1200
G1 X134.372 Y111.791 E.02012
G1 X134.372 Y111.209 E.01825
G1 X134.577 Y110.597 E.02024
G1 X134.974 Y110.089 E.02021
G1 X135.517 Y109.741 E.02022
G1 X136.146 Y109.595 E.02025
G1 X136.532 Y109.611 E.01211
G1 X137.089 Y109.782 E.01827
G1 X137.658 Y110.203 E.02219
G1 X137.984 Y110.685 E.01824
G1 X138.161 Y111.328 E.02091
G1 X138.113 Y111.95 E.01956
G1 X137.857 Y112.542 E.02022
G1 X137.419 Y113.015 E.02021
G1 X136.869 Y113.304 E.01948
G1 X136.209 Y113.408 E.02095
G1 X135.576 Y113.282 E.02024
G1 X135.022 Y112.953 E.0202
G1 X134.608 Y112.458 E.02023
G1 X134.606 Y112.452 E.0002
M204 S1000
;WIPE_START
G1 F8640
G1 X134.586 Y112.396 E-.01373
G1 X134.372 Y111.791 E-.14818
G1 X134.372 Y111.209 E-.13439
G1 X134.577 Y110.597 E-.14903
G1 X134.974 Y110.089 E-.14887
G1 X135.517 Y109.741 E-.14892
G1 X135.757 Y109.685 E-.05688
;WIPE_END
G1 Z.6 F720
G1 X138.167 Y97.288 F10800
G1 Z.2 F720
G1 E.8 F2100
M204 S800
;TYPE:Perimeter
G1 F1200
G1 X138.342 Y97.556 E.01004
G1 X138.522 Y98.211 E.0213
G1 X138.501 Y98.834 E.01954
G1 X138.44 Y99.167 E.01061
G1 X138.201 Y99.697 E.01823
G1 X138.069 Y99.881 E.0071
G1 X137.691 Y100.276 E.01714
G1 X137.537 Y100.39 E.00601
G1 X137.017 Y100.652 E.01826
G1 X136.834 Y100.708 E.006
G1 X136.257 Y100.782 E.01824
G1 X135.819 Y100.72 E.01387
G1 X135.32 Y100.58 E.01625
G1 X134.824 Y100.274 E.01827
G1 X134.68 Y100.148 E.006
G1 X134.315 Y99.695 E.01824
G1 X134.141 Y99.301 E.0135
G1 X133.995 Y98.802 E.0163
G1 X133.995 Y98.209 E.01859
G1 X134.096 Y97.827 E.01239
G1 X134.288 Y97.34 E.01641
G1 X134.68 Y96.852 E.01963
G1 X134.824 Y96.726 E.006
G1 X135.32 Y96.42 E.01827
G1 X135.497 Y96.349 E.00598
G1 X136.066 Y96.226 E.01825
G1 X136.581 Y96.236 E.01615
G1 X137.199 Y96.421 E.02023
G1 X137.37 Y96.507 E.006
G1 X137.838 Y96.854 E.01827
G1 X138.059 Y97.123 E.01092
