; generated by PrusaSlicer 2.8.0+win64 on 2024-09-26 at 05:44:53 UTC


;
;
; 

; external perimeters extrusion width = 0.45mm
; perimeters extrusion width = 0.45mm
; infill extrusion width = 0.45mm
; solid infill extrusion width = 0.45mm
; top infill extrusion width = 0.40mm
; first layer extrusion width = 0.42mm

M73 P0 R16
M73 Q0 S16
M201 X1000 Y1000 Z200 E5000 ; sets maximum accelerations, mm/sec^2
M203 X200 Y200 Z12 E120 ; sets maximum feedrates, mm / sec
M204 S1250 T1250 ; sets acceleration (S) and retract acceleration (R), mm/sec^2
M205 X8.00 Y8.00 Z0.40 E4.50 ; sets the jerk limits, mm/sec
M205 S0 T0 ; sets the minimum extruding and travel feed rate, mm/sec

; printing object WireHousing.STL id:0 copy 0
; stop printing object WireHousing.STL id:0 copy 0

;TYPE:Custom
M862.3 P "MK3S" ; printer model check
M862.1 P0.4 ; nozzle diameter check
M115 U3.14.0 ; tell printer latest fw version
G90 ; use absolute coordinates
M83 ; extruder relative mode
M104 S215 ; set extruder temp
M140 S60 ; set bed temp
M190 S60 ; wait for bed temp
M109 S215 ; wait for extruder temp
G28 W ; home all without mesh bed level
G80 X107.246 Y93.2458 W35.5083 H23.5083 ; mesh bed levelling

G1 Z0.2 F720
G1 Y-3 F1000 ; go outside print area
G92 E0
G1 X60 E9 F1000 ; intro line
G1 X100 E12.5 F1000 ; intro line

G92 E0
M221 S95

; Don't change E values below. Excessive value can damage the printer.

M907 E538 ; set extruder motor current
G21 ; set units to millimeters
G90 ; use absolute coordinates
M83 ; use relative distances for extrusion

M900 K0.05 ; Filament gcode LA 1.5
M900 K30 ; Filament gcode LA 1.0




M107
;LAYER_CHANGE
;Z:0.2
;HEIGHT:0.2
G1 E-.8 F2100
G1 Z.6 F720
G1 X107.827 Y94.637 F10800
G1 Z.2 F720
G1 E.8 F2100
M204 S800
;TYPE:Skirt/Brim
;WIDTH:0.42
G1 F1200
G1 X108.883 Y93.69 E.04447
G1 X110 Y93.434 E.03593
G1 X140 Y93.434 E.94063
G1 X141.363 Y93.827 E.04448
G1 X142.31 Y94.883 E.04447
G1 X142.566 Y96 E.03593
G1 X142.566 Y114 E.56438
G1 X142.173 Y115.363 E.04448
M73 Q1 S16
G1 X141.117 Y116.31 E.04447
G1 X140 Y116.566 E.03593
G1 X110 Y116.566 E.94063
M73 P1 R16
G1 X108.637 Y116.173 E.04448
G1 X107.69 Y115.117 E.04447
G1 X107.434 Y114 E.03593
G1 X107.434 Y96 E.56438
G1 X107.81 Y94.694 E.04261
M204 S1000
G1 X107.81 Y94.694 F10800
G1 X108.184 Y94.811
M204 S800
G1 F1200
G1 X108.202 Y94.752 E.00193
G1 X109.235 Y93.949 E.04102
G1 X110 Y93.811 E.02437
G1 X140 Y93.811 E.94063
G1 X141.248 Y94.202 E.04101
G1 X142.051 Y95.235 E.04102
G1 X142.189 Y96 E.02437
G1 X142.189 Y114 E.56438
G1 X141.798 Y115.248 E.04101
G1 X140.765 Y116.051 E.04102
G1 X140 Y116.189 E.02437
G1 X110 Y116.189 E.94063
G1 X108.752 Y115.798 E.04101
G1 X107.949 Y114.765 E.04102
G1 X107.811 Y114 E.02437
G1 X107.811 Y96 E.56438
G1 X108.166 Y94.869 E.03717
M204 S1000
;WIPE_START
G1 F8640
G1 X108.184 Y94.811 E-.01402
G1 X108.202 Y94.752 E-.01424
G1 X109.235 Y93.949 E-.30211
G1 X110 Y93.811 E-.17949
G1 X111.257 Y93.811 E-.29014
;WIPE_END
G1 Z.6 F720
; printing object WireHousing.STL id:0 copy 0
G1 X110.787 Y113.213 F10800
G1 Z.2 F720
G1 E.8 F2100
M204 S800
;TYPE:Perimeter
;WIDTH:0.419999
G1 F1200
G1 X110.787 Y96.787 E.51502
G1 X139.213 Y96.787 E.89128
G1 X139.213 Y105 E.25751
M73 P2 R16
M73 Q2 S16
G1 X139.213 Y113.213 E.25751
G1 X110.847 Y113.213 E.88939
M204 S1000
G1 X110.41 Y113.59 F10800
M204 S800
;TYPE:External perimeter
G1 F1200
G1 X110.41 Y96.41 E.53867
G1 X139.59 Y96.41 E.91492
G1 X139.59 Y105 E.26933
G1 X139.59 Y113.59 E.26933
G1 X110.47 Y113.59 E.91304
M204 S1000
;WIPE_START
G1 F8640
G1 X110.41 Y113.59 E-.01385
G1 X110.41 Y110.185 E-.78615
;WIPE_END
G1 Z.6 F720
G1 X139.043 Y97.729 F10800
G1 Z.2 F720
G1 E.8 F2100
M204 S800
;TYPE:Solid infill
;WIDTH:0.424484
G1 F1200
G1 X138.441 Y97.126 E.02703
G1 X137.902 Y97.126 E.0171
G1 X138.874 Y98.098 E.04361
G1 X138.874 Y98.638 E.01713
G1 X137.362 Y97.126 E.06784
G1 X136.822 Y97.126 E.01713
G1 X138.874 Y99.178 E.09207
G1 X138.874 Y99.717 E.0171
G1 X136.283 Y97.126 E.11626
G1 X135.743 Y97.126 E.01713
G1 X138.874 Y100.257 E.14048
G1 X138.874 Y100.797 E.01713
G1 X135.203 Y97.126 E.16471
G1 X134.664 Y97.126 E.0171
M73 Q3 S16
G1 X138.874 Y101.336 E.1889
G1 X138.874 Y101.876 E.01713
M73 P3 R16
G1 X134.124 Y97.126 E.21313
G1 X133.585 Y97.126 E.0171
G1 X138.874 Y102.415 E.23731
G1 X138.874 Y102.955 E.01713
G1 X133.045 Y97.126 E.26154
G1 X132.505 Y97.126 E.01713
G1 X138.874 Y103.495 E.28577
G1 X138.874 Y104.034 E.0171
G1 X131.966 Y97.126 E.30996
G1 X131.426 Y97.126 E.01713
G1 X138.874 Y104.574 E.33418
G1 X138.874 Y105.113 E.0171
G1 X130.887 Y97.126 E.35837
G1 X130.347 Y97.126 E.01713
G1 X138.874 Y105.653 E.3826
G1 X138.874 Y106.193 E.01713
G1 X129.807 Y97.126 E.40683
G1 X129.268 Y97.126 E.0171
G1 X138.874 Y106.732 E.43101
G1 X138.874 Y107.272 E.01713
G1 X128.728 Y97.126 E.45524
G1 X128.188 Y97.126 E.01713
G1 X138.874 Y107.812 E.47947
G1 X138.874 Y108.351 E.0171
G1 X127.649 Y97.126 E.50365
G1 X127.109 Y97.126 E.01713
G1 X138.874 Y108.891 E.52788
G1 X138.874 Y109.43 E.0171
G1 X126.57 Y97.126 E.55207
G1 X126.03 Y97.126 E.01713
M73 Q4 S16
G1 X138.874 Y109.97 E.5763
G1 X138.874 Y110.51 E.01713
M73 P4 R16
G1 X125.49 Y97.126 E.60053
G1 X124.951 Y97.126 E.0171
G1 X138.874 Y111.049 E.62471
G1 X138.874 Y111.589 E.01713
G1 X124.411 Y97.126 E.64894
G1 X123.872 Y97.126 E.0171
G1 X138.874 Y112.128 E.67312
G1 X138.874 Y112.668 E.01713
G1 X123.332 Y97.126 E.69735
G1 X122.792 Y97.126 E.01713
G1 X138.539 Y112.874 E.70657
G1 X138 Y112.874 E.0171
M73 P4 R15
G1 X122.253 Y97.126 E.70657
G1 X121.713 Y97.126 E.01713
G1 X137.46 Y112.874 E.70657
G1 X136.921 Y112.874 E.0171
M73 Q4 S15
G1 X121.174 Y97.126 E.70657
G1 X120.634 Y97.126 E.01713
M73 P5 R15
M73 Q5 S15
G1 X136.381 Y112.874 E.70657
G1 X135.841 Y112.874 E.01713
G1 X120.094 Y97.126 E.70657
G1 X119.555 Y97.126 E.0171
G1 X135.302 Y112.874 E.70657
G1 X134.762 Y112.874 E.01713
G1 X119.015 Y97.126 E.70657
G1 X118.475 Y97.126 E.01713
G1 X134.223 Y112.874 E.7066
G1 X133.683 Y112.874 E.01713
G1 X117.936 Y97.126 E.70657
G1 X117.396 Y97.126 E.01713
G1 X133.143 Y112.874 E.70657
G1 X132.604 Y112.874 E.0171
G1 X116.857 Y97.126 E.70657
G1 X116.317 Y97.126 E.01713
G1 X132.064 Y112.874 E.70657
M73 Q6 S15
G1 X131.524 Y112.874 E.01713
M73 P6 R15
G1 X115.777 Y97.126 E.70657
G1 X115.238 Y97.126 E.0171
G1 X130.985 Y112.874 E.70657
G1 X130.445 Y112.874 E.01713
G1 X114.698 Y97.126 E.70657
G1 X114.159 Y97.126 E.0171
G1 X129.906 Y112.874 E.70657
G1 X129.366 Y112.874 E.01713
G1 X113.619 Y97.126 E.70657
G1 X113.079 Y97.126 E.01713
G1 X128.826 Y112.874 E.70657
G1 X128.287 Y112.874 E.0171
G1 X112.54 Y97.126 E.70657
G1 X112 Y97.126 E.01713
G1 X127.747 Y112.874 E.70657
G1 X127.208 Y112.874 E.0171
M73 P7 R15
M73 Q7 S15
G1 X111.46 Y97.126 E.7066
G1 X111.126 Y97.126 E.0106
G1 X111.126 Y97.332 E.00654
G1 X126.668 Y112.874 E.69735
G1 X126.128 Y112.874 E.01713
G1 X111.126 Y97.872 E.67312
G1 X111.126 Y98.411 E.0171
G1 X125.589 Y112.874 E.64894
G1 X125.049 Y112.874 E.01713
G1 X111.126 Y98.951 E.62471
G1 X111.126 Y99.49 E.0171
G1 X124.51 Y112.874 E.60053
G1 X123.97 Y112.874 E.01713
G1 X111.126 Y100.03 E.5763
G1 X111.126 Y100.57 E.01713
G1 X123.43 Y112.874 E.55207
G1 X122.891 Y112.874 E.0171
G1 X111.126 Y101.109 E.52788
G1 X111.126 Y101.649 E.01713
G1 X122.351 Y112.874 E.50365
G1 X121.811 Y112.874 E.01713
M73 P8 R15
M73 Q8 S15
G1 X111.126 Y102.189 E.47943
G1 X111.126 Y102.728 E.0171
G1 X121.272 Y112.874 E.45524
G1 X120.732 Y112.874 E.01713
G1 X111.126 Y103.268 E.43101
G1 X111.126 Y103.807 E.0171
G1 X120.193 Y112.874 E.40683
G1 X119.653 Y112.874 E.01713
G1 X111.126 Y104.347 E.3826
G1 X111.126 Y104.887 E.01713
G1 X119.113 Y112.874 E.35837
G1 X118.574 Y112.874 E.0171
G1 X111.126 Y105.426 E.33418
G1 X111.126 Y105.966 E.01713
G1 X118.034 Y112.874 E.30996
G1 X117.495 Y112.874 E.0171
G1 X111.126 Y106.505 E.28577
G1 X111.126 Y107.045 E.01713
G1 X116.955 Y112.874 E.26154
G1 X116.415 Y112.874 E.01713
G1 X111.126 Y107.585 E.23731
G1 X111.126 Y108.124 E.0171
G1 X115.876 Y112.874 E.21313
G1 X115.336 Y112.874 E.01713
G1 X111.126 Y108.664 E.1889
G1 X111.126 Y109.204 E.01713
G1 X114.796 Y112.874 E.16467
G1 X114.257 Y112.874 E.0171
G1 X111.126 Y109.743 E.14048
G1 X111.126 Y110.283 E.01713
G1 X113.717 Y112.874 E.11626
G1 X113.178 Y112.874 E.0171
G1 X111.126 Y110.822 E.09207
G1 X111.126 Y111.362 E.01713
G1 X112.638 Y112.874 E.06784
G1 X112.098 Y112.874 E.01713
G1 X111.126 Y111.902 E.04361
G1 X111.126 Y112.441 E.0171
G1 X111.729 Y113.043 E.02703
M204 S1000
M106 S84.15
;LAYER_CHANGE
;Z:0.4
;HEIGHT:0.2
;BEFORE_LAYER_CHANGE
G92 E0.0
;0.4


;WIPE_START
G1 F8640
G1 X111.126 Y112.441 E-.19674
G1 X111.126 Y111.902 E-.12446
G1 X112.098 Y112.874 E-.3174
G1 X112.638 Y112.874 E-.12469
G1 X112.526 Y112.762 E-.03671
;WIPE_END
G1 Z.4 F720
;AFTER_LAYER_CHANGE
;0.4
M104 S210 ; set temperature
; stop printing object WireHousing.STL id:0 copy 0
G1 Z.8
G1 X112.526 Y116.566 F10800
G1 Z.4 F720
G1 E.8 F2100
;TYPE:Skirt/Brim
;WIDTH:0.42
G1 F3000
G1 X110 Y116.566 E.0792
G1 X108.637 Y116.173 E.04448
G1 X107.69 Y115.117 E.04447
G1 X107.434 Y114 E.03593
G1 X107.434 Y96 E.56438
G1 X107.827 Y94.637 E.04448
G1 X108.883 Y93.69 E.04447
G1 X110 Y93.434 E.03593
G1 X140 Y93.434 E.94063
G1 X141.363 Y93.827 E.04448
M73 P9 R15
M73 Q9 S15
G1 X142.31 Y94.883 E.04447
G1 X142.566 Y96 E.03593
G1 X142.566 Y114 E.56438
G1 X142.173 Y115.363 E.04448
G1 X141.117 Y116.31 E.04447
G1 X140 Y116.566 E.03593
G1 X112.586 Y116.566 E.85955
G1 X112.586 Y116.566 F10800
G1 X112.586 Y116.189
G1 F3000
G1 X110 Y116.189 E.08108
G1 X108.752 Y115.798 E.04101
G1 X107.949 Y114.765 E.04102
G1 X107.811 Y114 E.02437
G1 X107.811 Y96 E.56438
G1 X108.202 Y94.752 E.04101
G1 X109.235 Y93.949 E.04102
G1 X110 Y93.811 E.02437
G1 X140 Y93.811 E.94063
G1 X141.248 Y94.202 E.04101
G1 X142.051 Y95.235 E.04102
G1 X142.189 Y96 E.02437
G1 X142.189 Y114 E.56438
G1 X141.798 Y115.248 E.04101
G1 X140.765 Y116.051 E.04102
G1 X140 Y116.189 E.02437
G1 X112.646 Y116.189 E.85767
;WIPE_START
G1 F8640
G1 X112.586 Y116.189 E-.01385
G1 X110 Y116.189 E-.59711
G1 X109.219 Y115.944 E-.18904
;WIPE_END
G1 Z.8 F720
; printing object WireHousing.STL id:0 copy 0
G1 X110.632 Y113.368 F10800
G1 Z.4 F720
G1 E.8 F2100
M204 S800
;TYPE:Perimeter
;WIDTH:0.449999
G1 F3034.502
G1 X110.632 Y96.632 E.56649
G1 X139.368 Y96.632 E.97268
G1 X139.368 Y105 E.28325
G1 X139.368 Y113.368 E.28325
G1 X110.692 Y113.368 E.97065
M204 S1000
G1 X110.225 Y113.775 F10800
M204 S800
;TYPE:External perimeter
G1 F1904.692
G1 X110.225 Y96.225 E.59405
G1 X139.775 Y96.225 E1.00023
G1 X139.775 Y105 E.29702
G1 X139.775 Y113.775 E.29702
G1 X110.285 Y113.775 E.9982
M204 S1000
;WIPE_START
G1 F8640
G1 X110.225 Y113.775 E-.01385
G1 X110.225 Y110.37 E-.78615
;WIPE_END
G1 Z.8 F720
G1 X111.109 Y97.031 F10800
G1 Z.4 F720
M73 Q10 S15
G1 E.8 F2100
;TYPE:Solid infill
;WIDTH:0.548766
G1 F8895.988
G1 X111.064 Y96.987 E.00265
G1 X111.003 Y97.003 E.00265
M73 P10 R15
G1 X110.987 Y97.064 E.00265
G1 X111.031 Y97.109 E.00265
G1 X111.093 Y97.093 E.00269
;WIDTH:0.449999
G1 F11054.364
G1 X111.743 Y96.998 E.02224
G1 X110.932 Y97.815 E.03897
;WIDTH:0.41646
G1 F12000
G1 X110.866 Y97.888 E.00306
;WIDTH:0.38292
G1 X110.795 Y97.869 E.00208
G1 X110.814 Y97.94 E.00208
G1 X110.855 Y97.929 E.0012
;WIDTH:0.449999
G1 F11054.364
G1 X110.998 Y98.318 E.01403
G1 X112.318 Y96.998 E.06319
G1 X112.894 Y96.998 E.0195
G1 X110.998 Y98.894 E.09076
G1 X110.998 Y99.47 E.0195
G1 X113.47 Y96.998 E.11833
G1 X114.046 Y96.998 E.0195
G1 X110.998 Y100.046 E.14591
G1 X110.998 Y100.621 E.01946
G1 X114.621 Y96.998 E.17343
G1 X115.197 Y96.998 E.0195
G1 X110.998 Y101.197 E.201
G1 X110.998 Y101.773 E.0195
G1 X115.773 Y96.998 E.22858
G1 X116.348 Y96.998 E.01946
G1 X110.998 Y102.348 E.2561
G1 X110.998 Y102.924 E.0195
G1 X116.924 Y96.998 E.28367
G1 X117.5 Y96.998 E.0195
G1 X110.998 Y103.5 E.31125
G1 X110.998 Y104.075 E.01946
G1 X118.075 Y96.998 E.33877
G1 X118.651 Y96.998 E.0195
G1 X110.998 Y104.651 E.36634
G1 X110.998 Y105.227 E.0195
G1 X119.227 Y96.998 E.39392
G1 X119.803 Y96.998 E.0195
G1 X110.998 Y105.803 E.42149
G1 X110.998 Y106.378 E.01946
G1 X120.378 Y96.998 E.44901
G1 X120.954 Y96.998 E.0195
G1 X110.998 Y106.954 E.47659
G1 X110.998 Y107.53 E.0195
G1 X121.53 Y96.998 E.50416
G1 X122.105 Y96.998 E.01946
G1 X110.998 Y108.105 E.53169
G1 X110.998 Y108.681 E.0195
G1 X122.681 Y96.998 E.55926
G1 X123.257 Y96.998 E.0195
G1 X110.998 Y109.257 E.58683
G1 X110.998 Y109.832 E.01946
G1 X123.832 Y96.998 E.61436
G1 X124.408 Y96.998 E.0195
G1 X110.998 Y110.408 E.64193
G1 X110.998 Y110.984 E.0195
G1 X124.984 Y96.998 E.6695
G1 X125.559 Y96.998 E.01946
G1 X110.998 Y111.559 E.69703
G1 X110.998 Y112.135 E.0195
G1 X126.135 Y96.998 E.7246
G1 X126.711 Y96.998 E.0195
G1 X110.998 Y112.711 E.75217
G1 X110.977 Y112.893 E.0062
;WIDTH:0.41646
G1 F12000
G1 X110.955 Y113.075 E.00569
;WIDTH:0.38292
G1 X110.884 Y113.056 E.00208
G1 X110.903 Y113.127 E.00208
G1 X110.944 Y113.116 E.0012
;WIDTH:0.449999
G1 F11054.364
G1 X111.283 Y113.002 E.01211
G1 X127.287 Y96.998 E.7661
G1 X127.862 Y96.998 E.01946
G1 X111.859 Y113.002 E.76608
G1 X112.435 Y113.002 E.0195
M73 P10 R14
G1 X128.438 Y96.998 E.76608
G1 X129.014 Y96.998 E.0195
G1 X113.011 Y113.002 E.76608
G1 X113.586 Y113.002 E.01946
G1 X129.589 Y96.998 E.76608
G1 X130.165 Y96.998 E.0195
G1 X114.162 Y113.002 E.76608
G1 X114.738 Y113.002 E.0195
G1 X130.741 Y96.998 E.76608
G1 X131.316 Y96.998 E.01946
G1 X115.313 Y113.002 E.76608
G1 X115.889 Y113.002 E.0195
G1 X131.892 Y96.998 E.76608
G1 X132.468 Y96.998 E.0195
G1 X116.465 Y113.002 E.76608
G1 X117.04 Y113.002 E.01946
G1 X133.044 Y96.998 E.7661
G1 X133.619 Y96.998 E.01946
M73 Q10 S14
G1 X117.616 Y113.002 E.76608
G1 X118.192 Y113.002 E.0195
G1 X134.195 Y96.998 E.76608
G1 X134.771 Y96.998 E.0195
M73 P11 R14
G1 X118.768 Y113.002 E.76608
G1 X119.343 Y113.002 E.01946
M73 Q11 S14
G1 X135.346 Y96.998 E.76608
G1 X135.922 Y96.998 E.0195
G1 X119.919 Y113.002 E.76608
G1 X120.495 Y113.002 E.0195
G1 X136.498 Y96.998 E.76608
G1 X137.073 Y96.998 E.01946
G1 X121.07 Y113.002 E.76608
G1 X121.646 Y113.002 E.0195
G1 X137.649 Y96.998 E.76608
G1 X138.225 Y96.998 E.0195
G1 X122.222 Y113.002 E.76608
G1 X122.797 Y113.002 E.01946
G1 X138.801 Y96.998 E.7661
G1 X139.002 Y97.373 E.0144
G1 X123.373 Y113.002 E.74815
G1 X123.949 Y113.002 E.0195
G1 X139.002 Y97.949 E.72058
G1 X139.002 Y98.525 E.0195
G1 X124.524 Y113.002 E.69303
G1 X125.1 Y113.002 E.0195
G1 X139.002 Y99.1 E.66548
G1 X139.002 Y99.676 E.0195
G1 X125.676 Y113.002 E.63791
G1 X126.252 Y113.002 E.0195
G1 X139.002 Y100.252 E.61033
G1 X139.002 Y100.827 E.01946
G1 X126.827 Y113.002 E.58281
G1 X127.403 Y113.002 E.0195
G1 X139.002 Y101.403 E.55524
G1 X139.002 Y101.979 E.0195
G1 X127.979 Y113.002 E.52766
G1 X128.554 Y113.002 E.01946
G1 X139.002 Y102.554 E.50014
G1 X139.002 Y103.13 E.0195
G1 X129.13 Y113.002 E.47257
G1 X129.706 Y113.002 E.0195
G1 X139.002 Y103.706 E.44499
G1 X139.002 Y104.281 E.01946
G1 X130.281 Y113.002 E.41747
G1 X130.857 Y113.002 E.0195
G1 X139.002 Y104.857 E.3899
G1 X139.002 Y105.433 E.0195
G1 X131.433 Y113.002 E.36232
G1 X132.009 Y113.002 E.0195
G1 X139.002 Y106.009 E.33475
G1 X139.002 Y106.584 E.01946
G1 X132.584 Y113.002 E.30723
G1 X133.16 Y113.002 E.0195
G1 X139.002 Y107.16 E.27965
G1 X139.002 Y107.736 E.0195
G1 X133.736 Y113.002 E.25208
G1 X134.311 Y113.002 E.01946
G1 X139.002 Y108.311 E.22456
G1 X139.002 Y108.887 E.0195
G1 X134.887 Y113.002 E.19698
G1 X135.463 Y113.002 E.0195
G1 X139.002 Y109.463 E.16941
G1 X139.002 Y110.038 E.01946
G1 X136.038 Y113.002 E.14188
G1 X136.614 Y113.002 E.0195
G1 X139.002 Y110.614 E.11431
G1 X139.002 Y111.19 E.0195
G1 X137.19 Y113.002 E.08674
G1 X137.766 Y113.002 E.0195
G1 X139.002 Y111.766 E.05917
G1 X139.002 Y112.341 E.01946
G1 X138.341 Y113.002 E.03164
G1 X139.017 Y113.017 E.02289
;WIDTH:0.49957
G1 F9854.374
G1 X138.962 Y113.032 E.00216
G1 X138.922 Y112.992 E.00215
G1 X138.936 Y112.936 E.00219
G1 X138.992 Y112.922 E.00219
G1 X139.032 Y112.962 E.00215
M106 S170.85
;LAYER_CHANGE
;Z:0.6
;HEIGHT:0.2
;BEFORE_LAYER_CHANGE
G92 E0.0
;0.6


;WIPE_START
G1 F8640
G1 X138.992 Y112.922 E-.01306
G1 X138.936 Y112.936 E-.01333
G1 X138.922 Y112.992 E-.01333
G1 X138.962 Y113.032 E-.01306
G1 X139.017 Y113.017 E-.01316
